v/0.4.11/design-resources/icons/wf_doctype-icons/file.svg

<?xml version="1.0" encoding="utf-8"?>
<!-- Generated by IcoMoon.io -->
<!DOCTYPE svg PUBLIC "-//W3C//DTD SVG 1.1//EN" "http://www.w3.org/Graphics/SVG/1.1/DTD/svg11.dtd">
<svg version="1.1" xmlns="http://www.w3.org/2000/svg" xmlns:xlink="http://www.w3.org/1999/xlink" width="512" height="512" viewBox="0 0 512 512">
<g>
</g>
	<path d="M348.8 64c19.409 0 35.2 15.791 35.2 35.2v348.8h-320v-384h284.8zM348.8 32h-316.8v448h384v-380.8c0-37.114-30.086-67.2-67.2-67.2v0 0zM320 160h-192v32h192v-32zM320 224h-192v32h192v-32zM320 288h-192v32h192v-32z" fill="#595959" />
</svg>

<svg xmlns="http://www.w3.org/2000/svg" width="512" height="512" viewBox="0 0 512 512"><path stroke="#449FDB" d="M0 0"/><path d="M348.8 64c19.41 0 35.2 15.79 35.2 35.2V448H64V64h284.8zm0-32H32v448h384V99.2c0-37.114-30.086-67.2-67.2-67.2zM320 160H128v32h192v-32zm0 64H128v32h192v-32zm0 64H128v32h192v-32z" fill="#595959"/></svg>
